app/dist/common/images/bemobi-tech-on-nm.svg

<svg fill="none" height="18" width="18" xmlns="http://www.w3.org/2000/svg"><path d="m0 0h18v18h-18z" fill="#fff"/><path d="m14 11.5-3-1.5v3z" fill="#0060f1"/><path d="m11 13.001-3 1.499v-3z" fill="#459ef4"/><path d="m8 11.5 1.5-.75 1.5-.75v3l-1.5-.75z" fill="#027bff"/><path d="m5 13 1.501-.75 1.499-.75v3l-1.499-.75z" fill="#64baff"/><path d="m5 7 3-1.5v3z" fill="#9185f5"/><path d="m8 5.5-1.499-.75-1.501-.75v3z" fill="#a69df7"/><path d="m8 8.5-3-1.5v3z" fill="#7d61fa"/><path d="m11 7-3 1.5 3 1.5z" fill="#0500ff"/><path d="m11 10 3-1.5v3z" fill="#0053ff"/><path d="m14 8.5-1.501-.75-1.499-.75v3l1.499-.75z" fill="#062efe"/><path d="m5 10 3-1.5v3z" fill="#6924f2"/></svg>

<!-- by TradingView --><svg width="18" height="18" fill="none" xmlns="http://www.w3.org/2000/svg"><path fill="#fff" d="M0 0h18v18H0z"/><path d="M14 11.5 11 10v3l3-1.5Z" fill="#0060F1"/><path d="M11 13.001 8 14.5v-3l3 1.501Z" fill="#459EF4"/><path d="m8 11.5 1.5-.75L11 10v3l-1.5-.75L8 11.5Z" fill="#027BFF"/><path d="m5 13 1.501-.75L8 11.5v3l-1.499-.75L5 13Z" fill="#64BAFF"/><path d="m5 7 3-1.5v3L5 7Z" fill="#9185F5"/><path d="m8 5.5-1.499-.75L5 4v3l3-1.5Z" fill="#A69DF7"/><path d="M8 8.5 5 7v3l3-1.5Z" fill="#7D61FA"/><path d="M11 7 8 8.5l3 1.5V7Z" fill="#0500FF"/><path d="m11 10 3-1.5v3L11 10Z" fill="#0053FF"/><path d="m14 8.5-1.501-.75L11 7v3l1.499-.75L14 8.5Z" fill="#062EFE"/><path d="m5 10 3-1.5v3L5 10Z" fill="#6924F2"/></svg>
